svg/color/coinon.svg

<svg width="40" height="40" viewBox="0 0 40 40" fill="none" xmlns="http://www.w3.org/2000/svg">
<g clip-path="url(#clip0_820_3951)">
<path d="M20 0C31.0457 0 40 8.9543 40 20C40 31.0457 31.0457 40 20 40C8.95431 40 7.90517e-06 31.0457 0 20C6.58765e-07 8.95431 8.95431 1.97595e-06 20 0Z" fill="#CCDCFF"/>
<path d="M26 6C30.4183 6 34 9.58172 34 14V26C34 30.4183 30.4183 34 26 34H14C9.58172 34 6 30.4183 6 26V14C6 9.58172 9.58172 6 14 6H26Z" fill="#0052FF"/>
<g clip-path="url(#clip1_820_3951)">
<path d="M20.1615 14.3595C22.4256 14.3595 24.2217 15.756 24.9038 17.8327H29.4651C28.6388 13.3927 24.9756 10.3845 20.1979 10.3845C14.7724 10.3845 10.5349 14.503 10.5349 20.0183C10.5349 25.5336 14.6665 29.6153 20.1979 29.6153C24.8685 29.6153 28.6046 26.6071 29.4317 22.1303H24.9035C24.2567 24.2074 22.4621 25.6403 20.1964 25.6403C17.0703 25.6403 14.8794 23.2406 14.8794 20.0183C14.8809 16.7592 17.0365 14.3595 20.1615 14.3595Z" fill="white"/>
</g>
</g>
<defs>
<clipPath id="clip0_820_3951">
<rect width="40" height="40" fill="white"/>
</clipPath>
<clipPath id="clip1_820_3951">
<rect width="20" height="20" fill="white" transform="translate(10 10)"/>
</clipPath>
</defs>
</svg>

<svg xmlns="http://www.w3.org/2000/svg" width="40" height="40" fill="none" viewBox="0 0 40 40"><g clip-path="url(#coinon_svg-a)"><path fill="#CCDCFF" d="M20 0c11.046 0 20 8.954 20 20s-8.954 20-20 20S0 31.046 0 20 8.954 0 20 0"/><path fill="#0052FF" d="M26 6a8 8 0 0 1 8 8v12a8 8 0 0 1-8 8H14a8 8 0 0 1-8-8V14a8 8 0 0 1 8-8z"/><g clip-path="url(#coinon_svg-b)"><path fill="#fff" d="M20.162 14.36c2.264 0 4.06 1.396 4.742 3.473h4.561c-.826-4.44-4.49-7.448-9.267-7.448-5.426 0-9.663 4.118-9.663 9.633 0 5.516 4.131 9.597 9.663 9.597 4.67 0 8.407-3.008 9.234-7.485h-4.528c-.647 2.077-2.442 3.51-4.708 3.51-3.126 0-5.317-2.4-5.317-5.622.002-3.259 2.158-5.658 5.283-5.658"/></g></g><defs><clipPath id="coinon_svg-a"><path fill="#fff" d="M0 0h40v40H0z"/></clipPath><clipPath id="coinon_svg-b"><path fill="#fff" d="M10 10h20v20H10z"/></clipPath></defs></svg>
